svg/azure-group.svg

<?xml version="1.0" encoding="UTF-8"?>
<svg xmlns="http://www.w3.org/2000/svg" xmlns:xlink="http://www.w3.org/1999/xlink" width="32" height="32" viewBox="0 0 32 32">
<defs>
<filter id="filter-remove-color" x="0%" y="0%" width="100%" height="100%">
<feColorMatrix color-interpolation-filters="sRGB" values="0 0 0 0 1 0 0 0 0 1 0 0 0 0 1 0 0 0 1 0" />
</filter>
<image id="source-17" x="0" y="0" width="32" height="32" xlink:href="data:image/png;base64,iVBORw0KGgoAAAANSUhEUgAAACAAAAAgCAYAAABzenr0AAAABmJLR0QA/wD/AP+gvaeTAAAAc0lEQVRYhe3RMQoCQQwF0Kcr2CjrCWy8pGfyCl7GK9jIsoXaxEa2HQfhPxhIIEw+hIiIiOhs1ejfI87Y1Y4JF1y/BzeNAmxxwlgBHjgsDbYKAGsMVQ/VLw511T1AyxM8633q1y8DzLhhX/2Ee6NdERF/7g0gOAwpKiTTTwAAAABJRU5ErkJggg=="/>
<mask id="mask-0">
<g filter="url(#filter-remove-color)">
<use xlink:href="#source-17"/>
</g>
</mask>
<clipPath id="clip-0">
<rect x="0" y="0" width="32" height="32"/>
</clipPath>
<g id="source-16" clip-path="url(#clip-0)">
<path fill-rule="nonzero" fill="rgb(100%, 100%, 100%)" fill-opacity="1" d="M 24.089844 16.160156 C 23.230469 16.167969 22.390625 15.921875 21.671875 15.449219 L 24.070312 21.707031 L 26.4375 15.503906 C 25.730469 15.933594 24.917969 16.160156 24.089844 16.160156 "/>
</g>
<clipPath id="clip-1">
<rect x="0" y="0" width="32" height="32"/>
</clipPath>
<g id="source-19" clip-path="url(#clip-1)">
<g mask="url(#mask-0)">
<use xlink:href="#source-16"/>
</g>
</g>
<image id="source-36" x="0" y="0" width="32" height="32" xlink:href="data:image/png;base64,iVBORw0KGgoAAAANSUhEUgAAACAAAAAgCAYAAABzenr0AAAABmJLR0QA/wD/AP+gvaeTAAAAg0lEQVRYhe2UMQqEMBBFXzRsaSFeYK/nffZ8dm4jnkCSbSzEjezAsDb5D6bJfJLHwASEEEKI2gmGzADEQjYDG7D8W+AFPIH2dJ6ACRg9AtGQ6YD+QmD1PG4VCIcq9Vw03gskIAEvli1Ie5U+onSHwBt48D2tDMxeAcse/8pkr4QQdfMB2PkP/5R4r3QAAAAASUVORK5CYII="/>
<mask id="mask-1">
<g filter="url(#filter-remove-color)">
<use xlink:href="#source-36"/>
</g>
</mask>
<clipPath id="clip-2">
<rect x="0" y="0" width="32" height="32"/>
</clipPath>
<g id="source-35" clip-path="url(#clip-2)">
<path fill-rule="nonzero" fill="rgb(100%, 100%, 100%)" fill-opacity="1" d="M 12.035156 16.25 C 10.773438 16.238281 9.539062 15.871094 8.480469 15.183594 L 12.035156 24.515625 L 15.589844 15.253906 C 14.519531 15.90625 13.289062 16.253906 12.035156 16.25 "/>
</g>
<clipPath id="clip-3">
<rect x="0" y="0" width="32" height="32"/>
</clipPath>
<g id="source-38" clip-path="url(#clip-3)">
<g mask="url(#mask-1)">
<use xlink:href="#source-35"/>
</g>
</g>
<linearGradient id="linear-pattern-0" gradientUnits="userSpaceOnUse" x1="6.42" y1="1.32" x2="7.23" y2="11.39" gradientTransform="matrix(1.777778, 0.00266842, -0.00266842, 1.777778, 0, 0)">
<stop offset="0.22" stop-color="rgb(19.607843%, 83.137255%, 96.078431%)" stop-opacity="1"/>
<stop offset="1" stop-color="rgb(9.803922%, 54.117647%, 70.196078%)" stop-opacity="1"/>
</linearGradient>
</defs>
<path fill-rule="nonzero" fill="rgb(0%, 47.058824%, 83.137255%)" fill-opacity="1" d="M 30.613281 24.746094 C 30.988281 24.75 31.351562 24.605469 31.617188 24.339844 C 31.886719 24.078125 32.035156 23.71875 32.035156 23.34375 C 32.042969 23.265625 32.03125 23.183594 32 23.109375 C 31.449219 18.667969 28.90625 15.039062 24.070312 15.039062 C 19.234375 15.039062 16.621094 18.167969 16.125 23.109375 C 16.050781 23.894531 16.621094 24.59375 17.40625 24.675781 L 30.613281 24.675781 Z M 30.613281 24.746094 "/>
<use xlink:href="#source-19"/>
<path fill-rule="nonzero" fill="rgb(0%, 47.058824%, 83.137255%)" fill-opacity="1" d="M 24.089844 7.234375 C 21.625 7.234375 19.625 9.230469 19.625 11.695312 C 19.625 14.160156 21.621094 16.160156 24.085938 16.160156 C 26.550781 16.160156 28.550781 14.164062 28.550781 11.699219 C 28.550781 9.234375 26.554688 7.234375 24.089844 7.234375 "/>
<use xlink:href="#source-38"/>
<path fill-rule="nonzero" fill="url(#linear-pattern-0)" d="M 11.980469 2.914062 C 10.210938 2.914062 8.515625 3.617188 7.265625 4.867188 C 6.015625 6.117188 5.3125 7.8125 5.316406 9.582031 C 5.316406 13.261719 8.300781 16.246094 11.984375 16.246094 C 15.664062 16.246094 18.648438 13.257812 18.648438 9.578125 C 18.648438 5.894531 15.660156 2.914062 11.980469 2.914062 "/>
</svg>

<svg role="img" viewBox="0 0 32 32" height="32" width="32" xmlns="http://www.w3.org/2000/svg"><defs><clipPath id="746__731__clip-0"><path d="M0 0h32v32H0z"/></clipPath><clipPath id="747__732__clip-1"><path d="M0 0h32v32H0z"/></clipPath><clipPath id="748__733__clip-2"><path d="M0 0h32v32H0z"/></clipPath><clipPath id="749__734__clip-3"><path d="M0 0h32v32H0z"/></clipPath><g clip-path="url(#746__731__clip-0)" id="750__735__source-16"><path d="M24.09 16.16c-.86.008-1.7-.238-2.418-.71l2.398 6.257 2.367-6.203a4.52 4.52 0 0 1-2.347.656" fill="rgb(100%, 100%, 100%)"/></g><g clip-path="url(#747__732__clip-1)" id="751__736__source-19" mask="url(#752__737__mask-0)"><use href="#750__735__source-16"/></g><g clip-path="url(#748__733__clip-2)" id="753__738__source-35"><path d="M12.035 16.25a6.638 6.638 0 0 1-3.555-1.066l3.555 9.332 3.555-9.262c-1.07.652-2.3 1-3.555.996" fill="rgb(100%, 100%, 100%)"/></g><g clip-path="url(#749__734__clip-3)" id="754__739__source-38" mask="url(#755__740__mask-1)"><use href="#753__738__source-35"/></g><linearGradient gradientTransform="rotate(.086)scale(1.77778)" gradientUnits="userSpaceOnUse" id="756__741__azure-group-lp-0" x1="6.7" x2="6.7" y1="7.26" y2="18.36"><stop offset=".22" stop-color="rgb(19.607843%, 83.137255%, 96.078431%)"/><stop offset="1" stop-color="rgb(9.803922%, 54.117647%, 70.196078%)"/></linearGradient><linearGradient gradientTransform="rotate(.086)scale(1.77778)" gradientUnits="userSpaceOnUse" id="757__742__linear-pattern-1" x1="6.42" x2="7.23" y1="1.32" y2="11.39"><stop offset=".22" stop-color="rgb(19.607843%, 83.137255%, 96.078431%)"/><stop offset="1" stop-color="rgb(9.803922%, 54.117647%, 70.196078%)"/></linearGradient><image height="32" href="data:image/png;base64,iVBORw0KGgoAAAANSUhEUgAAACAAAAAgCAYAAABzenr0AAAABmJLR0QA/wD/AP+gvaeTAAAAeElEQVRYhe3TMQoCMRAF0KdrIyiCVxAP6M1svM/ewE62UpsRRNLGNP9BIAPD5JMQIiIiYrBVp7lnXLCrMxZccftt3HQKsMUJhwrwwLHV2CsArDHVfqq62TTU8AA9n+BZ67N//TPAghn7r/reauz1DVuzmzcQETHcG83WDSpacKbsAAAAAElFTkSuQmCC" id="758__743__source-17" width="32" x="0" y="0"/><image height="32" href="data:image/png;base64,iVBORw0KGgoAAAANSUhEUgAAACAAAAAgCAYAAABzenr0AAAABmJLR0QA/wD/AP+gvaeTAAAAg0lEQVRYhe2UsQ5AMBRFTxGjwWjzfb7H99nYfIChDAzSlJRicU/ylvamPXnJeyCEEEL8HROQqYDck52BCejfFmiBGkidcwt0QLPJ3CILyBRAeSAw3v34ioDZle8uiiT2AQlIIJaQKbBb+RaR/UJgYN2EbrdmIrcghM1xcpJ7pAtC/JsFatkR/9nJR1kAAAAASUVORK5CYII=" id="759__744__source-36" width="32" x="0" y="0"/><mask id="752__737__mask-0"><g filter="url(#760__745__filter-remove-color)"><use href="#758__743__source-17"/></g></mask><mask id="755__740__mask-1"><g filter="url(#760__745__filter-remove-color)"><use href="#759__744__source-36"/></g></mask><filter height="100%" id="760__745__filter-remove-color" width="100%" x="0%" y="0%"><feColorMatrix color-interpolation-filters="sRGB" values="0 0 0 0 1 0 0 0 0 1 0 0 0 0 1 0 0 0 1 0"/></filter></defs><path d="M30.613 24.746c.375.004.739-.14 1.004-.406.27-.262.418-.621.418-.996a.485.485 0 0 0-.035-.235c-.55-4.441-3.094-8.07-7.93-8.07s-7.449 3.129-7.945 8.07a1.438 1.438 0 0 0 1.281 1.567h13.207Zm0 0" fill="rgb(0%, 47.058824%, 83.137255%)"/><use href="#751__736__source-19"/><path d="M24.09 7.234a4.463 4.463 0 1 0-.004 8.926 4.463 4.463 0 0 0 .004-8.926" fill="rgb(0%, 47.058824%, 83.137255%)"/><path d="M21.672 29.086c1.168 0 2.113-.95 2.113-2.117a.893.893 0 0 0 0-.25c-.836-6.649-4.62-12.051-11.84-12.051-7.215 0-11.164 4.586-11.945 12a2.131 2.131 0 0 0 1.902 2.328h19.735Zm0 0" fill="url(#756__741__linear-pattern-0)"/><use href="#754__739__source-38"/><path d="M11.98 2.914c-1.77 0-3.464.703-4.714 1.953a6.647 6.647 0 0 0-1.95 4.715 6.666 6.666 0 1 0 6.664-6.668" fill="url(#757__742__linear-pattern-1)"/></svg>
